public/images/icons/48x48/alaune_48_bicolore.svg

<svg height="48" viewBox="0 0 48 48" width="48" xmlns="http://www.w3.org/2000/svg"><g fill="none" fill-rule="evenodd" stroke-width=".5" transform="translate(4 4)"><g transform="translate(0 3.321)"><path d="m39.871546 13.3272966-4.4746771-11.93442268c-.4008611-1.07003635-1.6297456-1.62611407-2.739726-1.23896562-.9488063.3308387-1.5068494 1.24515516-1.3982779 2.17245457l-2.4620744.8580822c-.3084931.1075622-.46818.43606094-.3568689.73353648.1116243.29785295.4522897.45176125.7607828.34412357l2.4067319-.83913615 4.0038356 10.67983223-10.3422309 3.6057115c-1.2879061-2.1040676-3.9899804-3.1000559-6.4576125-2.2396338-1.1288454.393338-2.0376517 1.1157032-2.6531507 2.0140929l-2.1667319-5.7779397c-.3910763-1.0437685.171272-2.20015651 1.2540117-2.57786967l10.0234834-3.42512698c.3088063-.10763768.4684149-.43606094.3564775-.73361196-.1112329-.29747554-.4522114-.45138384-.7607045-.34374616l-10.0234834 3.42512698c-1.6988649.59261112-2.5810567 2.40712889-1.967045 4.04501819l.2051664.5475482-9.05761257 3.1572715c-.49534247-.8830669-1.60133072-1.3093906-2.60947162-.9582472-1.10966732.3871485-1.68571429 1.5721443-1.28485323 2.6421806l1.95726027 5.2200503c.31459883.8394381 1.13808219 1.3619262 2.01440313 1.3619262.24062623 0 .48618396-.0391752.7253229-.1226586.53753425-.1874979.96712329-.565513 1.20994129-1.0646771.19686888-.4051132.25166341-.850383.16109589-1.2811602l9.05729944-3.1572715.2021918.5393207c-.2840705.9971205-.264501 2.0848952.1268884 3.129494.4241096 1.1307995 1.2227789 2.0642885 2.2770254 2.6755437l-2.9317416 6.1216858h-2.5116243c-1.2429746 0-2.2538552.9747778-2.2538552 2.1730584 0 1.1985826 1.0111938 2.1736623 2.2538552 2.1736623h.4745988c.3277495 0 .5941292-.2564887.5941292-.5729102 0-.3166481-.2663797-.5728348-.5941292-.5728348h-.4745988c-.5876321 0-1.06591-.4608946-1.06591-1.0279173 0-.5664188.4782779-1.0272379 1.06591-1.0272379h2.8880626c.0012525 0 .0024266.000302.0036791.000302h10.6647358c.0012524 0 .0024266-.000302.0036791-.000302h2.8876712c.5877104 0 1.065362.4608191 1.065362 1.0272379 0 .5670227-.4776516 1.0279173-1.065362 1.0279173h-12.5967906c-.3280626 0-.5941292.2561867-.5941292.5728348 0 .3164215.2660666.5729102.5941292.5729102h12.5967906c1.2429745 0 2.2541683-.9750797 2.2541683-2.1736623 0-1.1982806-1.0115069-2.1730584-2.2541683-2.1730584h-2.511546l-2.93182-6.1216858c2.0985519-1.2210008 3.1113112-3.7122169 2.3370646-6.0274084l10.3131116-3.5954459c.397182.5832513 1.076634.931149 1.7909197.931149.2409394 0 .486184-.0397791.7252446-.1229606.5376126-.1874979.9672016-.5652111 1.2099413-1.0643752.242818-.4991641.2694325-1.0593933.0752251-1.5778054zm-34.91311156 9.0643612c-.10763209.2220688-.29878669.3903942-.53784736.4735756-.49354207.1718731-1.04023483-.0751803-1.21823874-.5507939l-1.95726028-5.2200503c-.17823874-.4759156.07796478-1.0030836.57119374-1.1753341.10669276-.0368354.2155773-.0544982.32258317-.0544982.38990215 0 .75585127.2326363.89620352.605896l1.95694717 5.2197484c.08657534.2305983.0746771.4797652-.03358122.7014565zm.85526419-1.8796589-1.3653229-3.6423204 9.03499017-3.1495723 1.3655578 3.6423204zm10.42254407 10.3941319 2.7015264-5.6413922c.5518591.1789684 1.1243053.2691697 1.6982387.2691697.5729942 0 1.1472407-.0905032 1.7046576-.2700755l2.7024657 5.6419961h-8.8068884zm5.8277103-6.7612468c-1.0445401.3641263-2.1728375.3169499-3.1806653-.131792 0 0-.0003131-.000302-.000548-.000302-.0003131 0-.0006262-.0003019-.0012524-.0006038-.007045-.0029438-.01409-.0055857-.0208219-.0088314-1.0129942-.4581773-1.7805088-1.2696114-2.1611742-2.2842438-.7852055-2.0949343.3434051-4.4154096 2.5156164-5.1728739.468728-.1633436.9484932-.240562 1.420274-.240562 1.7153816 0 3.3283757 1.0236903 3.9441879 2.6666369.7852055 2.0946324-.3434051 4.4154096-2.5156165 5.172572zm16.6563601-9.726265c-.1076321.2219932-.2987084.3900922-.5378473.4731982-.4934638.171873-1.0402349-.0751804-1.2184736-.550794l-4.474364-11.93472463c-.178317-.47591557.0782779-1.00278166.5714286-1.17473022.1064579-.03743919.2152641-.05480011.3223483-.05480011.3898239 0 .7561644.23263629.8962035.60559407l4.4740509 11.93480009c.0865753.2302209.0749119.4796897-.0333464.7014566z" fill="#1e1169" stroke="#1e1169"/><path d="m19.6761644 17.7760693c-.711546.2479592-1.2808611.748633-1.6021918 1.4097065-.321409.6604697-.3562427 1.4023092-.0990998 2.0887447.2571429.6863601.7763601 1.2351161 1.4616047 1.5449707.3822309.1727789.790998.2598099 1.2010959.2598099.3250098 0 .6506458-.0545737.9653229-.1642494.7114677-.2479592 1.280861-.7486329 1.6021918-1.4094045.3210959-.6604697.3562426-1.4023092.0990998-2.0890467-.5314286-1.4167263-2.1587476-2.1529801-3.6280235-1.6405312zm2.4526027 3.2430948c-.1862231.3836008-.5163992.6742829-.9301761.8182276-.4130724.1441711-.8598043.1243947-1.2576125-.0557814-.3978082-.1794968-.6993347-.4979564-.8485323-.8968801-.1495108-.3983953-.129002-.8291725.0575342-1.2127733.186458-.3836007.5170255-.6742829.930411-.8182275.1837965-.0642354.3721331-.0946548.5574168-.0946548.6736595 0 1.3072407.4022449 1.5488063 1.0473162.1495107.3983953.1290019.8291725-.0578474 1.2127733z" fill="#1e1169" stroke="#1e1169"/><path d="m1.44571429 8.98117976-.25534247 1.43506854c-.07616438.429041.10332681.8547609.46841487 1.1107212.36540118.2559603.84093934.289248 1.24054795.0863517l1.33651663-.6775286 1.3362818.6775286c.17362035.0881633.36203523.1318675.54911938.1318675.24313111 0 .48500978-.0737462.69103718-.2182192.36540117-.2559603.54520548-.6813782.46849315-1.1107212l-.25502936-1.43506854 1.08117417-1.01606654c.3232094-.30396701.43726028-.75006709.29784736-1.16431367-.13941291-.41402013-.50387475-.71028795-.95060665-.77286273l-1.49401174-.2096142-.66818004-1.30531451c-.19992173-.39039419-.60446184-.63337154-1.05612525-.63337154-.45158513 0-.85643835.24267542-1.05612524.63306961l-.66841488 1.30561644-1.49401174.20931227c-.44704501.06287671-.81119373.35884261-.95060665.77316466-.13980431.41394465-.02544031.86004473.29808219 1.16408723zm1.24203522-2.02941571c.3837182-.05396981.71522505-.28600224.8867319-.62129438l.66136986-1.29172771.66113503 1.29172771c.17181996.33529214.50293542.56732457.8867319.62129438l1.47835616.20697232-1.06990215 1.00572547c-.27757338.26094213-.404227.63691921-.33847358 1.00512161l.25228963 1.42004755-1.32219178-.67050883c-.17150685-.08695555-.35953034-.13058429-.54794521-.13058429-.18833659 0-.37667319.04362874-.54825832.13058429l-1.3221135.67020683.25221135-1.419972c.06575343-.36827788-.06082192-.74425496-.33878669-1.00489516l-1.06958904-1.0060274z" fill="#28dcf0" stroke="#28dcf0"/></g><path d="m36.3331507 25.9420408-1.4943249-.2096897-.6684148-1.3053145c-.1993738-.3906206-.6044619-.6329941-1.0558122-.6329941-.4515851 0-.8564383.2423735-1.0561252.6329941l-.6684149 1.3053145-1.4936986.2096897c-.447045.0621974-.8115069.3585407-.9509981.7730892-.1394129.4139446-.025362.8600447.2981605 1.1640872l1.0809393 1.0160666-.2550293 1.434993c-.0764775.4290411.1030137.8548364.4684149 1.1107212.2064187.1444731.4479843.2182192.6910371.2182192.1871625 0 .3754991-.0436287.5495108-.131792l1.3362035-.6776041 1.3365167.6776041c.3996868.2025189.8751467.1695331 1.2402348-.0867291.3650881-.2555829.5448924-.6813782.4684149-1.1104193l-.2552642-1.434993 1.0811741-1.0163685c.3232094-.3037406.4375734-.7498407.2978474-1.1640872-.1394129-.4142466-.5036399-.710288-.9503718-.7727873zm-1.2619178 2.1367515c-.2779648.2606402-.4045401.6363153-.3387867 1.0051971l.2526027 1.419972-1.3221918-.6705088c-.1718199-.0869555-.3599217-.1305843-.5482583-.1305843s-.3764383.0436288-.5479452.1305843l-1.3224266.6702069.2522114-1.4196701c.0657534-.3688818-.060822-.7445569-.3381605-1.0051971l-1.0699022-1.0060274 1.4784345-.2069723c.3837182-.0536679.7148336-.2860023.8867319-.6212944l.6610567-1.2920297.6613699 1.2920297c.1715851.3352921.5033268.5676265.8867319.6212944l1.4784344.2069723zm-19.8376517-22.90176686-.2552642 1.43476656c-.0761644.42926755.1030137.85476098.4684149 1.11094773.2067319.1445485.4479843.21793575.6913503.21793575.1874755 0 .3751859-.04334532.5491976-.13181051l1.3365167-.67730221 1.3362035.67730221c.4.20289628.8751468.16953313 1.2402348-.08612524.3654012-.25618675.5452055-.68168018.4684149-1.11094773l-.2549511-1.43476656 1.0811742-1.01667039c.3235225-.30396702.4372603-.7500671.2978474-1.16408723-.1394912-.41394464-.5039531-.71028795-.950685-.77308918l-1.4940117-.20901034-.6681018-1.30591837c-.2-.39039418-.6045401-.63306961-1.0561252-.63306961-.4516634 0-.8567515.24267543-1.0564384.63306961l-.6681017 1.30591837-1.4940118.20901034c-.447045.06280123-.8115068.35884261-.950998.77308918-.1394129.41402013-.0250489.86012021.2978473 1.16408723zm1.2421135-2.02979312c.3837182-.05396981.7151468-.28600224.8867319-.6212189l.6613699-1.29172771.6607436 1.29172771c.1718983.33521666.5033268.56724909.887045.6212189l1.4784345.20727425-1.0699022 1.00549902c-.2773385.26094213-.4039139.6365418-.3387867 1.00512161l.2526028 1.42004753-1.3221918-.67050881c-.1715851-.0867291-.3599217-.13035784-.5479452-.13035784-.1883366 0-.3767515.04362874-.5482583.13035784l-1.3221918.67050881.2522896-1.42004753c.0654403-.36827788-.061135-.74417948-.3387867-1.00512161l-1.069589-1.00549902z" fill="#28dcf0" stroke="#28dcf0"/></g></svg>

<svg xmlns="http://www.w3.org/2000/svg" width="48" height="48" viewBox="0 0 48 48">
  <g fill="none" fill-rule="evenodd" stroke-width=".5" transform="translate(4 4)">
    <g transform="translate(0 3.321)">
      <path fill="#1E1169" stroke="#1E1169" d="M39.871546,13.3272966 L35.3968689,1.39287392 C34.9960078,0.322837573 33.7671233,-0.233240145 32.6571429,0.153908303 C31.7083366,0.484746995 31.1502935,1.39906346 31.258865,2.32636287 L28.7967906,3.18444507 C28.4882975,3.29200727 28.3286106,3.62050601 28.4399217,3.91798155 C28.551546,4.2158345 28.8922114,4.3697428 29.2007045,4.26210512 L31.6074364,3.42296897 L35.611272,14.1028012 L25.2690411,17.7085127 C23.981135,15.6044451 21.2790607,14.6084568 18.8114286,15.4688789 C17.6825832,15.8622169 16.7737769,16.5845821 16.1582779,17.4829718 L13.991546,11.7050321 C13.6004697,10.6612636 14.162818,9.50487559 15.2455577,9.12716243 L25.2690411,5.70203545 C25.5778474,5.59439777 25.737456,5.26597451 25.6255186,4.96842349 C25.5142857,4.67094795 25.1733072,4.51703965 24.8648141,4.62467733 L14.8413307,8.04980431 C13.1424658,8.64241543 12.260274,10.4569332 12.8742857,12.0948225 L13.0794521,12.6423707 L4.02183953,15.7996422 C3.52649706,14.9165753 2.42050881,14.4902516 1.41236791,14.841395 C0.302700587,15.2285435 -0.27334638,16.4135393 0.127514677,17.4835756 L2.08477495,22.7036259 C2.39937378,23.543064 3.22285714,24.0655521 4.09917808,24.0655521 C4.33980431,24.0655521 4.58536204,24.0263769 4.82450098,23.9428935 C5.36203523,23.7553956 5.79162427,23.3773805 6.03444227,22.8782164 C6.23131115,22.4731032 6.28610568,22.0278334 6.19553816,21.5970562 L15.2528376,18.4397847 L15.4550294,18.9791054 C15.1709589,19.9762259 15.1905284,21.0640006 15.5819178,22.1085994 C16.0060274,23.2393989 16.8046967,24.1728879 17.8589432,24.7841431 L14.9272016,30.9058289 L12.4155773,30.9058289 C11.1726027,30.9058289 10.1617221,31.8806067 10.1617221,33.0788873 C10.1617221,34.2774699 11.1729159,35.2525496 12.4155773,35.2525496 L12.8901761,35.2525496 C13.2179256,35.2525496 13.4843053,34.9960609 13.4843053,34.6796394 C13.4843053,34.3629913 13.2179256,34.1068046 12.8901761,34.1068046 L12.4155773,34.1068046 C11.8279452,34.1068046 11.3496673,33.64591 11.3496673,33.0788873 C11.3496673,32.5124685 11.8279452,32.0516494 12.4155773,32.0516494 L15.3036399,32.0516494 C15.3048924,32.0516494 15.3060665,32.0519514 15.307319,32.0519514 L25.9720548,32.0519514 C25.9733072,32.0519514 25.9744814,32.0516494 25.9757339,32.0516494 L28.8634051,32.0516494 C29.4511155,32.0516494 29.9287671,32.5124685 29.9287671,33.0788873 C29.9287671,33.64591 29.4511155,34.1068046 28.8634051,34.1068046 L16.2666145,34.1068046 C15.9385519,34.1068046 15.6724853,34.3629913 15.6724853,34.6796394 C15.6724853,34.9960609 15.9385519,35.2525496 16.2666145,35.2525496 L28.8634051,35.2525496 C30.1063796,35.2525496 31.1175734,34.2774699 31.1175734,33.0788873 C31.1175734,31.8806067 30.1060665,30.9058289 28.8634051,30.9058289 L26.3518591,30.9058289 L23.4200391,24.7841431 C25.518591,23.5631423 26.5313503,21.0719262 25.7571037,18.7567347 L36.0702153,15.1612888 C36.4673973,15.7445401 37.1468493,16.0924378 37.861135,16.0924378 C38.1020744,16.0924378 38.347319,16.0526587 38.5863796,15.9694772 C39.1239922,15.7819793 39.5535812,15.4042661 39.7963209,14.905102 C40.0391389,14.4059379 40.0657534,13.8457087 39.871546,13.3272966 Z M4.95843444,22.3916578 C4.85080235,22.6137266 4.65964775,22.782052 4.42058708,22.8652334 C3.92704501,23.0371065 3.38035225,22.7900531 3.20234834,22.3144395 L1.24508806,17.0943892 C1.06684932,16.6184736 1.32305284,16.0913056 1.8162818,15.9190551 C1.92297456,15.8822197 2.0318591,15.8645569 2.13886497,15.8645569 C2.52876712,15.8645569 2.89471624,16.0971932 3.03506849,16.4704529 L4.99201566,21.6902013 C5.078591,21.9207996 5.06669276,22.1699665 4.95843444,22.3916578 Z M5.81369863,20.5119989 L4.44837573,16.8696785 L13.4833659,13.7201062 L14.8489237,17.3624266 L5.81369863,20.5119989 Z M16.2362427,30.9061308 L18.9377691,25.2647386 C19.4896282,25.443707 20.0620744,25.5339083 20.6360078,25.5339083 C21.209002,25.5339083 21.7832485,25.4434051 22.3406654,25.2638328 L25.0431311,30.9058289 L16.2362427,30.9058289 L16.2362427,30.9061308 Z M22.063953,24.144884 C21.0194129,24.5090103 19.8911155,24.4618339 18.8832877,24.013092 C18.8832877,24.013092 18.8829746,24.01279 18.8827397,24.01279 C18.8824266,24.01279 18.8821135,24.0124881 18.8814873,24.0121862 C18.8744423,24.0092424 18.8673973,24.0066005 18.8606654,24.0033548 C17.8476712,23.5451775 17.0801566,22.7337434 16.6994912,21.719111 C15.9142857,19.6241767 17.0428963,17.3037014 19.2151076,16.5462371 C19.6838356,16.3828935 20.1636008,16.3056751 20.6353816,16.3056751 C22.3507632,16.3056751 23.9637573,17.3293654 24.5795695,18.972312 C25.364775,21.0669444 24.2361644,23.3877216 22.063953,24.144884 Z M38.7203131,14.418619 C38.612681,14.6406122 38.4216047,14.8087112 38.1824658,14.8918172 C37.689002,15.0636902 37.1422309,14.8166368 36.9639922,14.3410232 L32.4896282,2.40629857 C32.3113112,1.930383 32.5679061,1.40351691 33.0610568,1.23156835 C33.1675147,1.19412916 33.2763209,1.17676824 33.3834051,1.17676824 C33.773229,1.17676824 34.1395695,1.40940453 34.2796086,1.78236231 L38.7536595,13.7171624 C38.8402348,13.9473833 38.8285714,14.1968521 38.7203131,14.418619 Z"/>
      <path fill="#1E1169" stroke="#1E1169" d="M19.6761644,17.7760693 C18.9646184,18.0240285 18.3953033,18.5247023 18.0739726,19.1857758 C17.7525636,19.8462455 17.7177299,20.588085 17.9748728,21.2745205 C18.2320157,21.9608806 18.7512329,22.5096366 19.4364775,22.8194912 C19.8187084,22.9922701 20.2274755,23.0793011 20.6375734,23.0793011 C20.9625832,23.0793011 21.2882192,23.0247274 21.6028963,22.9150517 C22.314364,22.6670925 22.8837573,22.1664188 23.2050881,21.5056472 C23.526184,20.8451775 23.5613307,20.103338 23.3041879,19.4166005 C22.7727593,17.9998742 21.1454403,17.2636204 19.6761644,17.7760693 Z M22.1287671,21.0191641 C21.942544,21.4027649 21.6123679,21.693447 21.198591,21.8373917 C20.7855186,21.9815628 20.3387867,21.9617864 19.9409785,21.7816103 C19.5431703,21.6021135 19.2416438,21.2836539 19.0924462,20.8847302 C18.9429354,20.4863349 18.9634442,20.0555577 19.1499804,19.6719569 C19.3364384,19.2883562 19.6670059,18.997674 20.0803914,18.8537294 C20.2641879,18.789494 20.4525245,18.7590746 20.6378082,18.7590746 C21.3114677,18.7590746 21.9450489,19.1613195 22.1866145,19.8063908 C22.3361252,20.2047861 22.3156164,20.6355633 22.1287671,21.0191641 Z"/>
      <path fill="#28DCF0" stroke="#28DCF0" d="M1.44571429,8.98117976 L1.19037182,10.4162483 C1.11420744,10.8452893 1.29369863,11.2710092 1.65878669,11.5269695 C2.02418787,11.7829298 2.49972603,11.8162175 2.89933464,11.6133212 L4.23585127,10.9357926 L5.57213307,11.6133212 C5.74575342,11.7014845 5.9341683,11.7451887 6.12125245,11.7451887 C6.36438356,11.7451887 6.60626223,11.6714425 6.81228963,11.5269695 C7.1776908,11.2710092 7.35749511,10.8455913 7.28078278,10.4162483 L7.02575342,8.98117976 L8.10692759,7.96511322 C8.43013699,7.66114621 8.54418787,7.21504613 8.40477495,6.80079955 C8.26536204,6.38677942 7.9009002,6.0905116 7.4541683,6.02793682 L5.96015656,5.81832262 L5.29197652,4.51300811 C5.09205479,4.12261392 4.68751468,3.87963657 4.23585127,3.87963657 C3.78426614,3.87963657 3.37941292,4.12231199 3.17972603,4.51270618 L2.51131115,5.81832262 L1.01729941,6.02763489 C0.570254403,6.0905116 0.206105675,6.3864775 0.0666927593,6.80079955 C-0.073111546,7.2147442 0.0412524462,7.66084428 0.364774951,7.96488678 L1.44571429,8.98117976 Z M2.68774951,6.95176405 C3.07146771,6.89779424 3.40297456,6.66576181 3.57448141,6.33046967 L4.23585127,5.03874196 L4.8969863,6.33046967 C5.06880626,6.66576181 5.39992172,6.89779424 5.7837182,6.95176405 L7.26207436,7.15873637 L6.19217221,8.16446184 C5.91459883,8.42540397 5.78794521,8.80138105 5.85369863,9.16958345 L6.10598826,10.589631 L4.78379648,9.91912217 C4.61228963,9.83216662 4.42426614,9.78853788 4.23585127,9.78853788 C4.04751468,9.78853788 3.85917808,9.83216662 3.68759295,9.91912217 L2.36547945,10.589329 L2.6176908,9.169357 C2.68344423,8.80107912 2.55686888,8.42510204 2.27890411,8.16446184 L1.20931507,7.15843444 L2.68774951,6.95176405 Z"/>
    </g>
    <path fill="#28DCF0" stroke="#28DCF0" d="M36.3331507 25.9420408L34.8388258 25.7323511 34.170411 24.4270366C33.9710372 24.036416 33.5659491 23.7940425 33.1145988 23.7940425 32.6630137 23.7940425 32.2581605 24.036416 32.0584736 24.4270366L31.3900587 25.7323511 29.8963601 25.9420408C29.4493151 26.0042382 29.0848532 26.3005815 28.945362 26.71513 28.8059491 27.1290746 28.92 27.5751747 29.2435225 27.8792172L30.3244618 28.8952838 30.0694325 30.3302768C29.992955 30.7593179 30.1724462 31.1851132 30.5378474 31.440998 30.7442661 31.5854711 30.9858317 31.6592172 31.2288845 31.6592172 31.416047 31.6592172 31.6043836 31.6155885 31.7783953 31.5274252L33.1145988 30.8498211 34.4511155 31.5274252C34.8508023 31.7299441 35.3262622 31.6969583 35.6913503 31.4406961 36.0564384 31.1851132 36.2362427 30.7593179 36.1597652 30.3302768L35.904501 28.8952838 36.9856751 27.8789153C37.3088845 27.5751747 37.4232485 27.1290746 37.2835225 26.7148281 37.1441096 26.3005815 36.7798826 26.0045401 36.3331507 25.9420408zM35.0712329 28.0787923C34.7932681 28.3394325 34.6666928 28.7151076 34.7324462 29.0839894L34.9850489 30.5039614 33.6628571 29.8334526C33.4910372 29.7464971 33.3029354 29.7028683 33.1145988 29.7028683 32.9262622 29.7028683 32.7381605 29.7464971 32.5666536 29.8334526L31.244227 30.5036595 31.4964384 29.0839894C31.5621918 28.7151076 31.4356164 28.3394325 31.1582779 28.0787923L30.0883757 27.0727649 31.5668102 26.8657926C31.9505284 26.8121247 32.2816438 26.5797903 32.4535421 26.2444982L33.1145988 24.9524685 33.7759687 26.2444982C33.9475538 26.5797903 34.2792955 26.8121247 34.6627006 26.8657926L36.141135 27.0727649 35.0712329 28.0787923zM15.2335812 5.17702544L14.978317 6.611792C14.9021526 7.04105955 15.0813307 7.46655298 15.4467319 7.72273973 15.6534638 7.86728823 15.8947162 7.94065698 16.1380822 7.94065698 16.3255577 7.94065698 16.5132681 7.89733016 16.6872798 7.80886497L18.0237965 7.13156276 19.36 7.80886497C19.76 8.01176125 20.2351468 7.9783981 20.6002348 7.72273973 20.965636 7.46655298 21.1454403 7.04105955 21.0686497 6.611792L20.8136986 5.17702544 21.8948728 4.16035505C22.2183953 3.85638803 22.3321331 3.41028795 22.1927202 2.99626782 22.053229 2.58232318 21.6887671 2.28597987 21.2420352 2.22317864L19.7480235 2.0141683 19.0799217.70824993C18.8799217.317855745 18.4753816.0751803187 18.0237965.0751803187 17.5721331.0751803187 17.167045.317855745 16.9673581.70824993L16.2992564 2.0141683 14.8052446 2.22317864C14.3581996 2.28597987 13.9937378 2.58202125 13.8542466 2.99626782 13.7148337 3.41028795 13.8291977 3.85638803 14.1520939 4.16035505L15.2335812 5.17702544zM16.4756947 3.14723232C16.8594129 3.09326251 17.1908415 2.86123008 17.3624266 2.52601342L18.0237965 1.23428571 18.6845401 2.52601342C18.8564384 2.86123008 19.1878669 3.09326251 19.5715851 3.14723232L21.0500196 3.35450657 19.9801174 4.36000559C19.7027789 4.62094772 19.5762035 4.99654739 19.6413307 5.3651272L19.8939335 6.78517473 18.5717417 6.11466592C18.4001566 6.02793682 18.21182 5.98430808 18.0237965 5.98430808 17.8354599 5.98430808 17.647045 6.02793682 17.4755382 6.11466592L16.1533464 6.78517473 16.405636 5.3651272C16.4710763 4.99684932 16.344501 4.62094772 16.0668493 4.36000559L14.9972603 3.35450657 16.4756947 3.14723232z"/>
  </g>
</svg>
